svgs/taskmanager.svg

<svg width="192" height="192" viewBox="0 0 192 192" fill="none" xmlns="http://www.w3.org/2000/svg">
<path d="M167 122.5V161C167 164.314 164.314 167 161 167H31C27.6863 167 25 164.314 25 161V128M25 104V31C25 27.6863 27.6863 25 31 25H161C164.314 25 167 27.6863 167 31V95.5" stroke="black" stroke-width="12" stroke-linecap="round" stroke-linejoin="round"/>
<path d="M25 128C25 128 36.297 124 39.5 124C42.703 124 43.5 125.5 48 125.5C52.5 125.5 55.5 100 61 100C66.5 100 67 112.5 72 112.5C77 112.5 76 107.5 80.5 107.5C85 107.5 87.0677 125.5 93 125.5C98.9323 125.5 104.801 90 111.15 90C117.5 90 121.846 119 125.5 119C129.154 119 130 105.5 135 105.5C140 105.5 142.872 117.5 146.5 117.5C150.128 117.5 151.692 114.5 154.5 114.5C157.308 114.5 167 122.5 167 122.5" stroke="black" stroke-width="12" stroke-linecap="round" stroke-linejoin="round"/>
</svg>

<svg xmlns="http://www.w3.org/2000/svg" width="192" height="192" fill="none" viewBox="0 0 192 192"><path stroke="#000" stroke-linecap="round" stroke-linejoin="round" stroke-width="12" d="M167 122.5V161a6 6 0 0 1-6 6H31a6 6 0 0 1-6-6v-33m0-24V31a6 6 0 0 1 6-6h130a6 6 0 0 1 6 6v64.5"/><path stroke="#000" stroke-linecap="round" stroke-linejoin="round" stroke-width="12" d="M25 128s11.297-4 14.5-4 4 1.5 8.5 1.5S55.5 100 61 100s6 12.5 11 12.5 4-5 8.5-5 6.568 18 12.5 18S104.801 90 111.15 90c6.35 0 10.696 29 14.35 29s4.5-13.5 9.5-13.5 7.872 12 11.5 12 5.192-3 8-3 12.5 8 12.5 8"/></svg>
